X:112
T:My Love is fixed upon her
T:Tha mo ghaol air an nighean
R:Slow Air
S:Simon Fraser Collection
N:No.167
O:Scottish
M:C
L:1/8
Q:1/4=120
K:B Minor
F|:B>c d2 (c>B)(dA)|F>GA>B c>de>c|d>ef>e d>c (B<F)|
A>GF>^E F<^A B2:|
~B>c d<f c>B(dA)|F>GA>B c>de>c|d>ef>e d>c (B<F)|
A>GF>^E F<^A B2|~B>c d<f c>B(dA)|F>GA>B c>dec|
B>cd>e f>B(AG)|Ff (ed) (cd) [D2B2]||

